X: 4
T: Bill Sullivan's
R: polka
M: 2/4
L: 1/8
K: Amaj
|: e2 e>d | cA e>d | cA e>d | cA dc | e2 e>d | cA e2 | ea d>e| dc c2 :||: d|ea ae | fa ae | ea ae | fe e2| ea ae | fa ae | ea d>e | dc c2 :|


Tune 481	Setting 481

